X:1
T:Ballydesmond Polka
R:polka
H:Often played with #3
Z:id:hn-polka-2
M:2/4
L:1/8
K:Ador
EA A>B|cd eg|G2 G>A|GE ED|EA A>B|cd ef|ge dB|1 A2 A>G:|2 A2 A2||
|:a>g ab|ag ef|g>f ga|ge ed|ea a>b|ag ef|ge dB|1 A2 A2:|2 A2 AG||

